assets/images/Social/Icons/inst.svg

<svg width="100" height="100" viewBox="0 0 100 100" fill="none" xmlns="http://www.w3.org/2000/svg">
<circle cx="50" cy="50" r="50" fill="#F7C24D"/>
<path fill-rule="evenodd" clip-rule="evenodd" d="M67.9935 37.5584C68.5571 39.0541 68.8563 40.6364 68.8776 42.2346C68.9952 44.2447 68.9958 44.9021 69 49.9902L69 50.0612C69 55.2164 68.9726 55.86 68.8818 57.8899C68.8502 59.4705 68.5527 61.0278 67.9977 62.5049C67.5083 63.7661 66.7615 64.9116 65.8049 65.8682C64.8483 66.8248 63.7028 67.5716 62.4416 68.061C60.9652 68.6151 59.4054 68.9141 57.8288 68.9451C55.8135 69.0633 55.153 69.0633 50 69.0633C44.847 69.0633 44.2034 69.0359 42.1713 68.9451C40.5915 68.8932 39.0322 68.5721 37.5605 67.9956C36.2988 67.5072 35.1528 66.7611 34.1957 65.8047C33.2387 64.8484 32.4916 63.703 32.0023 62.4416C31.4474 60.9624 31.1498 59.4051 31.1182 57.8266C31 55.8093 31 55.1509 31 49.9979C31 44.8449 31.0274 44.2012 31.1182 42.1692C31.148 40.5931 31.447 39.0337 32.0023 37.5584C32.4908 36.2967 33.2373 35.1508 34.194 34.194C35.1508 33.2373 36.2967 32.4908 37.5584 32.0023C39.0342 31.4483 40.5932 31.1487 42.1691 31.1161C44.1844 31 44.8449 31 49.9979 31C55.1509 31 55.7945 31.0253 57.8245 31.1161C59.4012 31.1484 60.961 31.4481 62.4374 32.0023C63.6989 32.4912 64.8447 33.2378 65.8013 34.1944C66.758 35.1511 67.5046 36.2969 67.9935 37.5584ZM40.2299 49.9873C40.2299 55.3767 44.5959 59.7427 49.9852 59.7427C52.5725 59.7427 55.0538 58.7149 56.8833 56.8854C58.7128 55.0559 59.7406 52.5746 59.7406 49.9873C59.7406 47.4001 58.7128 44.9188 56.8833 43.0893C55.0538 41.2598 52.5725 40.232 49.9852 40.232C44.5959 40.232 40.2299 44.598 40.2299 49.9873ZM57.8541 39.8712C57.8541 41.1288 58.8691 42.1459 60.1288 42.1459C61.3844 42.1459 62.4015 41.1288 62.4015 39.8712C62.4015 39.5726 62.3427 39.2769 62.2284 39.0011C62.1142 38.7252 61.9467 38.4745 61.7355 38.2634C61.5244 38.0523 61.2738 37.8848 60.9979 37.7705C60.722 37.6563 60.4264 37.5975 60.1278 37.5975C59.8292 37.5975 59.5335 37.6563 59.2577 37.7705C58.9818 37.8848 58.7312 38.0523 58.52 38.2634C58.3089 38.4745 58.1414 38.7252 58.0271 39.0011C57.9129 39.2769 57.8541 39.5726 57.8541 39.8712ZM56.3221 49.9855C56.3221 53.4853 53.485 56.3224 49.9853 56.3224C46.4855 56.3224 43.6484 53.4853 43.6484 49.9855C43.6484 46.4858 46.4855 43.6487 49.9853 43.6487C53.485 43.6487 56.3221 46.4858 56.3221 49.9855Z" fill="#010107"/>
</svg>

<svg xmlns="http://www.w3.org/2000/svg" width="100" height="100" fill="none" viewBox="0 0 100 100"><circle cx="50" cy="50" r="50" fill="#F7C24D"/><path fill="#010107" fill-rule="evenodd" d="M67.993 37.558c.564 1.496.863 3.078.885 4.677.117 2.01.118 2.667.122 7.755v.071c0 5.155-.027 5.799-.118 7.829a13.895 13.895 0 0 1-.884 4.615 9.739 9.739 0 0 1-5.556 5.556 13.906 13.906 0 0 1-4.613.884c-2.016.118-2.676.118-7.829.118s-5.797-.027-7.829-.118a13.892 13.892 0 0 1-4.61-.95 9.729 9.729 0 0 1-5.559-5.553 13.918 13.918 0 0 1-.884-4.615C31 55.809 31 55.15 31 49.997c0-5.152.027-5.796.118-7.828.03-1.576.329-3.135.884-4.61a9.724 9.724 0 0 1 5.556-5.557 13.94 13.94 0 0 1 4.611-.886C44.184 31 44.845 31 49.998 31s5.797.025 7.827.116c1.576.032 3.136.332 4.612.886a9.73 9.73 0 0 1 5.556 5.556zM40.23 49.988a9.753 9.753 0 0 0 16.653 6.897 9.755 9.755 0 0 0-6.898-16.653 9.753 9.753 0 0 0-9.755 9.755zM57.854 39.87a2.272 2.272 0 0 0 2.275 2.275 2.273 2.273 0 0 0 1.607-3.883 2.274 2.274 0 0 0-3.882 1.608zm-1.532 10.114a6.337 6.337 0 1 1-12.674 0 6.337 6.337 0 0 1 12.674 0z" clip-rule="evenodd"/></svg>
